X:231
T:Bridal Veil Falls
C:Chris Thile
N:From the CD Not All Who Wander Are Lost Transcribed by Steve Terregino
L:1/8
Q:1/4=230
M:6/4
K:E
z8 zD EF | GA AB zc Be FG GF | E2 f2 =d2 de ze zf | f=g fe z=d d/B/z A=G zB | 
=GA zA zB A2 A=F ^GA | AB zB zc Be FG GF | E2 f2 =d2 de ze zf | f=g fe z=d =c2 BA z=G | 
EF AF z=G F3F GA | B=c =d=D =G,e dD AB BA | =G2 f2 =d2 de ze zf | f=g fe z=d d/B/z A=G zB | 
=GA zA zB GA AF GA | ^A=c =d^d =f=g f2 c=d dc | ^A2 f2 =d2 =f2 fe f^f | =g2 fe z=d =c2 BA z=G | 
EF z4 z=D EF =GA | B=c =d2 de d=D Bc B=G | A=G FE z3=D EF G=c | ef =ga g=d ab aA a/=c'/z | 
=c'b a=g fe =d^d e=c AF | =GA B=c ee =dd =gg ff | =ga b=c' c'=d' c'b ab c'b | 
a=g fg ag fe cd ed | fd =gd g/a/z aa =c'b za | ga bg eB GE ED =DB, | =C4 z=D EF =GB =ce | 
=d=D B=G Ad =ga b=d' =c'b | a/=f/=g fa gf e=d B^A =AG | z8 z3=d | =ga =d'b ag eg =c'd' =g'e' | 
=d'3d' z=D d'd' zd' z=d | =ga =d'b ag eg =c'd' =g'e' | =d'=g' b'a' g'e' d'b a=g e=d | 
=ga =d'b ag eg =c'd' =g'e' | =d'3d' b=D b3d' e'D | =d'b za b=g a3g =G,G, | =G3=g z=G, gg =dg zd | 
=ga =d'b ag eg =c'd' =g'e' | =d'2 =dd' z=D d'd' dd' dd | =ga =d'b ag eg =c'd' =g'e' | 
=d'=g' b'a' g'e' d'b a=g e=d | =ga =d'b ag eg =c'd' =g'e' | =d'3d' b=D b3d' e'D | 
=d'b za (3ba=g a2 ag z2 | =d=c c=D dc cD Bc =G,D | cd e2 fe de2=D GB | Ae B=D B/c/B GA2F CE | 
DA E=G, FD B,C2B, A,G, | z=F2=d b/c'/=d' c'b a=g fe | cd e2 fe de2c GB | Ae B=D B/c/B GA2F CE | 
DA E=G, FD B,C2B, A,G, | z=F2=d b/c'/=d' c'b a=g fe | c/d/d/d/ de fe de2c GB | 
AA/A/ AB cB GA2F CE | DD/D/ DE FD B,C2B, A,=G, | z=F =D/=db3/2=d'3/2c'3/2 ba b/=g/f/e/ | 
cd e2 fe de2c GB | Ae B=D B/c/B GA2F CE | DA ED FE DE DE FE | F=G FG AB =c^c =d^d e=f | 
f2 g2 ag fg2e Bd | ce d=D ed Bc2B2[AD] | B=c de fd B^c2B A=G | z=G BG =dG fd eB/c/ ed | 
d2 e2 fe de zc GB | Ae B[A=D] B/c/B GA zF CE | DA E=G, FD B,C2B, A,G, | [=g2B2=D2=G,2] [g2B2D2G,2] [ADG,][g2c2E2A,2][g2c2E2A,2][A/D/][A/D/] [f2=c2D2G,2] | 
[f=c=D=G,]a [ADG,][fBDG,] z8 | z8 z4 | 
 

